dist/flags/l/296.svg

<svg width="32" height="24" viewBox="0 0 32 24" fill="none" xmlns="http://www.w3.org/2000/svg">
<mask id="mask0" mask-type="alpha" maskUnits="userSpaceOnUse" x="0" y="0" width="32" height="24">
<rect width="32" height="24" fill="white"/>
</mask>
<g mask="url(#mask0)">
<path fill-rule="evenodd" clip-rule="evenodd" d="M0 0V24H32V0H0Z" fill="#E31D1C"/>
<mask id="mask1" mask-type="alpha" maskUnits="userSpaceOnUse" x="0" y="0" width="32" height="24">
<path fill-rule="evenodd" clip-rule="evenodd" d="M0 0V24H32V0H0Z" fill="white"/>
</mask>
<g mask="url(#mask1)">
<path fill-rule="evenodd" clip-rule="evenodd" d="M16.009 9.96085C16.0256 9.96235 16.0422 9.96398 16.0588 9.96572C16.1158 9.76972 16.217 9.44831 16.3468 9.14436C16.5526 8.6623 17.1472 8.39169 17.1472 8.39169C17.1472 8.39169 16.8534 8.72311 16.7762 9.24836C16.729 9.56923 16.7124 9.89544 16.7066 10.1007L16.748 10.1141C16.8515 9.93702 17.0247 9.65537 17.2205 9.39668C17.5368 8.97873 18.1792 8.86001 18.1792 8.86001C18.1792 8.86001 17.8139 9.1105 17.6119 9.60147C17.4947 9.8865 17.403 10.1829 17.3467 10.3814C17.3674 10.3932 17.3878 10.4052 17.4082 10.4174C17.5503 10.2677 17.772 10.0448 18.009 9.84678C18.4113 9.5107 19.0639 9.53953 19.0639 9.53953C19.0639 9.53953 18.6516 9.70143 18.3444 10.1344C18.1758 10.3719 18.0272 10.6245 17.9274 10.8041C17.9494 10.8241 17.971 10.8443 17.9924 10.8649C18.1645 10.7521 18.4144 10.5971 18.6723 10.4663C19.1399 10.2293 19.7693 10.4042 19.7693 10.4042C19.7693 10.4042 19.3312 10.4692 18.9344 10.822C18.7316 11.0023 18.5428 11.1992 18.4067 11.3486C18.4255 11.3754 18.4439 11.4026 18.4619 11.43C18.6536 11.3641 18.9156 11.2815 19.1794 11.2211C19.6904 11.1043 20.2588 11.4263 20.2588 11.4263C20.2588 11.4263 19.818 11.3834 19.3477 11.6297C19.1279 11.7447 18.9161 11.8761 18.7529 11.9834C18.7698 12.025 18.786 12.0671 18.8012 12.1095C18.9965 12.0903 19.2467 12.0723 19.4942 12.0728C20.0183 12.0739 20.4997 12.5155 20.4997 12.5155C20.4997 12.5155 20.0799 12.3745 19.5662 12.5087C19.3456 12.5663 19.1286 12.6388 18.9526 12.7028C18.9607 12.755 18.9676 12.8077 18.9732 12.8606C19.1588 12.8858 19.3843 12.9225 19.6041 12.9738C20.1146 13.0928 20.4843 13.6313 20.4843 13.6313C20.4843 13.6313 20.1069 13.3995 19.5762 13.4147C19.367 13.4207 19.1579 13.4396 18.9812 13.4603C18.9767 13.5179 18.9707 13.5751 18.9632 13.6319C19.1286 13.6988 19.3218 13.7829 19.5073 13.8779C19.9738 14.1169 20.2023 14.7289 20.2023 14.7289C20.2023 14.7289 19.8922 14.4127 19.3736 14.299C19.1874 14.2582 18.9985 14.2278 18.833 14.2056C18.8119 14.2703 18.7889 14.3342 18.7639 14.3971C18.901 14.4943 19.0552 14.6098 19.201 14.7327C19.6018 15.0704 19.6867 15.7182 19.6867 15.7182C19.6867 15.7182 19.4557 15.3403 18.976 15.1129C18.8158 15.0369 18.6514 14.9693 18.5034 14.9128C18.4645 14.9754 18.4234 15.0365 18.3804 15.0962C18.4856 15.2154 18.6 15.3522 18.7061 15.4935C19.0206 15.9128 18.9577 16.563 18.9577 16.563C18.9577 16.563 18.8176 16.1428 18.4013 15.8134C18.2702 15.7096 18.1339 15.6122 18.0085 15.5274C17.9545 15.58 17.8987 15.6308 17.8412 15.6796C17.9113 15.8158 17.9852 15.9688 18.0507 16.1239C18.2545 16.6069 18.0361 17.2226 18.0361 17.2226C18.0361 17.2226 18.0018 16.781 17.6776 16.3606C17.581 16.2352 17.4783 16.1142 17.3819 16.0061C17.312 16.0472 17.2406 16.0858 17.1675 16.1218C17.2035 16.2651 17.2391 16.4233 17.2667 16.5818C17.3566 17.0982 17.0053 17.649 17.0053 17.649C17.0053 17.649 17.0712 17.211 16.8499 16.7284C16.7855 16.5879 16.7146 16.4502 16.6464 16.3256C16.5673 16.3489 16.487 16.3694 16.4056 16.3869C16.4082 16.5316 16.407 16.6898 16.3985 16.8465C16.3699 17.3699 15.9037 17.8275 15.9037 17.8275C15.9037 17.8275 16.0665 17.4156 15.9594 16.8956C15.9282 16.7443 15.8901 16.5942 15.8518 16.4574C15.8041 16.4595 15.7562 16.4605 15.708 16.4605C15.6754 16.4605 15.6428 16.46 15.6104 16.4591C15.5777 16.6015 15.5379 16.7565 15.4912 16.9082C15.3369 17.4091 14.7739 17.7404 14.7739 17.7404C14.7739 17.7404 15.0314 17.3801 15.0533 16.8497C15.0597 16.6944 15.059 16.5387 15.0548 16.3961C14.9741 16.3799 14.8945 16.3608 14.816 16.3389C14.7515 16.4718 14.677 16.6158 14.5963 16.755C14.3332 17.2083 13.7101 17.4045 13.7101 17.4045C13.7101 17.4045 14.0421 17.1113 14.1828 16.5994C14.2255 16.4438 14.2609 16.286 14.2895 16.1417C14.2176 16.1075 14.1472 16.0708 14.0784 16.0317C13.9833 16.15 13.8748 16.2782 13.7611 16.3997C13.4028 16.7823 12.7515 16.8332 12.7515 16.8332C12.7515 16.8332 13.141 16.6223 13.3931 16.1551C13.4743 16.0048 13.548 15.8501 13.6106 15.7096C13.5545 15.6633 13.5 15.6152 13.4471 15.5654C13.3205 15.6623 13.1755 15.7674 13.0264 15.8638C12.5862 16.1483 11.942 16.0402 11.942 16.0402C11.942 16.0402 12.3709 15.9297 12.7286 15.5374C12.8507 15.4035 12.9658 15.2629 13.0645 15.1358C13.0226 15.0793 12.9824 15.0215 12.9441 14.9624C12.7923 15.032 12.6169 15.1069 12.4394 15.1711C11.9464 15.3493 11.343 15.099 11.343 15.099C11.343 15.099 11.7858 15.0879 12.2226 14.7862C12.3843 14.6744 12.5398 14.5532 12.6715 14.4448C12.6469 14.3856 12.624 14.3256 12.6028 14.2647C12.4312 14.3009 12.2294 14.3378 12.0279 14.3621C11.5075 14.4249 10.9759 14.0452 10.9759 14.0452C10.9759 14.0452 11.4098 14.134 11.9033 13.9382C12.1033 13.8589 12.2987 13.7667 12.4603 13.6851C12.4524 13.6324 12.4458 13.5792 12.4405 13.5256C12.255 13.5199 12.0303 13.5069 11.8096 13.4793C11.2895 13.4144 10.8655 12.9174 10.8655 12.9174C10.8655 12.9174 11.2651 13.1085 11.7912 13.0379C12.0227 13.0069 12.2525 12.9598 12.4373 12.9169C12.4416 12.8676 12.4471 12.8186 12.4536 12.77C12.266 12.7215 12.0314 12.6543 11.8051 12.5714C11.313 12.3911 11.0116 11.8115 11.0116 11.8115C11.0116 11.8115 11.358 12.0875 11.8865 12.1371C12.1409 12.161 12.3977 12.1658 12.5956 12.1643C12.6089 12.125 12.623 12.0861 12.6378 12.0475C12.4597 11.956 12.228 11.8294 12.01 11.6872C11.571 11.4008 11.4077 10.7682 11.4077 10.7682C11.4077 10.7682 11.6831 11.1151 12.187 11.2824C12.4512 11.3701 12.7233 11.4363 12.9223 11.4795C12.938 11.4546 12.9541 11.4299 12.9704 11.4054C12.8154 11.2713 12.6027 11.0779 12.4102 10.8706C12.0535 10.4865 12.0481 9.83325 12.0481 9.83325C12.0481 9.83325 12.2314 10.2365 12.6798 10.5207C12.9304 10.6794 13.1955 10.8167 13.3806 10.9069C13.3997 10.8878 13.4191 10.869 13.4387 10.8504C13.3162 10.6842 13.1404 10.4333 12.9904 10.1722C12.7292 9.71771 12.871 9.07999 12.871 9.07999C12.871 9.07999 12.9588 9.51411 13.3318 9.89187C13.5531 10.1159 13.7956 10.32 13.9564 10.449C13.9747 10.4375 13.9931 10.4262 14.0117 10.4151C13.9292 10.2262 13.8073 9.92866 13.7157 9.62652C13.5635 9.12494 13.845 8.53544 13.845 8.53544C13.845 8.53544 13.8329 8.9782 14.1114 9.43019C14.2836 9.70965 14.4833 9.97321 14.6106 10.1337C14.623 10.1293 14.6355 10.125 14.6479 10.1208C14.6133 9.91945 14.5636 9.58728 14.5471 9.25824C14.5208 8.73474 14.9365 8.23087 14.9365 8.23087C14.9365 8.23087 14.8177 8.65756 14.9786 9.16349C15.0791 9.47966 15.2108 9.78685 15.2955 9.97281C15.3117 9.97079 15.3279 9.9689 15.3442 9.96711C15.3556 9.76391 15.3818 9.42465 15.4405 9.09617C15.5326 8.58016 16.0511 8.18274 16.0511 8.18274C16.0511 8.18274 15.8393 8.57176 15.8822 9.10092C15.9091 9.43164 15.9683 9.76062 16.009 9.96085Z" fill="#FFC84A"/>
<path fill-rule="evenodd" clip-rule="evenodd" d="M-0.792133 13.9201L1.82271 12.8589C2.20386 12.7042 2.63064 12.7061 3.01041 12.8642L6.64116 14.3751C7.05195 14.5461 7.51616 14.5337 7.9173 14.3412L10.8459 12.9358C11.2659 12.7342 11.754 12.7306 12.177 12.926L15.2444 14.3431C15.6577 14.534 16.1336 14.5352 16.5478 14.3463L19.6866 12.9149C20.1006 12.7261 20.5764 12.7272 20.9896 12.9179L24.0884 14.3485C24.4951 14.5363 24.9628 14.5404 25.3728 14.3599L28.7589 12.8689C29.1255 12.7075 29.5401 12.6931 29.917 12.8286L32.9528 13.9201V23.9338H-0.881104L-0.792133 13.9201Z" fill="#F7FCFF"/>
<mask id="mask2" mask-type="alpha" maskUnits="userSpaceOnUse" x="-1" y="12" width="34" height="12">
<path fill-rule="evenodd" clip-rule="evenodd" d="M-0.792133 13.9201L1.82271 12.8589C2.20386 12.7042 2.63064 12.7061 3.01041 12.8642L6.64116 14.3751C7.05195 14.5461 7.51616 14.5337 7.9173 14.3412L10.8459 12.9358C11.2659 12.7342 11.754 12.7306 12.177 12.926L15.2444 14.3431C15.6577 14.534 16.1336 14.5352 16.5478 14.3463L19.6866 12.9149C20.1006 12.7261 20.5764 12.7272 20.9896 12.9179L24.0884 14.3485C24.4951 14.5363 24.9628 14.5404 25.3728 14.3599L28.7589 12.8689C29.1255 12.7075 29.5401 12.6931 29.917 12.8286L32.9528 13.9201V23.9338H-0.881104L-0.792133 13.9201Z" fill="white"/>
</mask>
<g mask="url(#mask2)">
<path d="M-0.792236 16.2457L1.82261 15.1845C2.20376 15.0299 2.63054 15.0317 3.01031 15.1898L6.64105 16.7007C7.05185 16.8717 7.51605 16.8594 7.9172 16.6668L10.8458 15.2614C11.2658 15.0598 11.7539 15.0562 12.1769 15.2516L15.2443 16.6687C15.6576 16.8596 16.1335 16.8608 16.5477 16.6719L19.6865 15.2405C20.1005 15.0517 20.5763 15.0528 20.9895 15.2436L24.0883 16.6741C24.495 16.8619 24.9627 16.866 25.3727 16.6855L28.7588 15.1945C29.1254 15.0331 29.54 15.0187 29.9169 15.1542L32.9527 16.2457" stroke="#015989" stroke-width="2"/>
<path d="M-0.792236 19.5747L1.82261 18.5135C2.20376 18.3588 2.63054 18.3607 3.01031 18.5188L6.64105 20.0297C7.05185 20.2007 7.51605 20.1883 7.9172 19.9958L10.8458 18.5904C11.2658 18.3888 11.7539 18.3852 12.1769 18.5806L15.2443 19.9977C15.6576 20.1886 16.1335 20.1898 16.5477 20.0009L19.6865 18.5695C20.1005 18.3807 20.5763 18.3818 20.9895 18.5725L24.0883 20.0031C24.495 20.1909 24.9627 20.195 25.3727 20.0145L28.7588 18.5235C29.1254 18.3621 29.54 18.3477 29.9169 18.4832L32.9527 19.5747" stroke="#015989" stroke-width="2"/>
<path fill-rule="evenodd" clip-rule="evenodd" d="M-0.792236 22.2274L0.299429 21.7843C1.65643 21.2336 3.17588 21.2403 4.52797 21.803L6.64106 22.6823C7.05185 22.8533 7.51605 22.841 7.9172 22.6485L9.14771 22.0579C10.6432 21.3403 12.3809 21.3275 13.8868 22.0232L15.2443 22.6503C15.6576 22.8412 16.1335 22.8424 16.5477 22.6535L18.0166 21.9836C19.4908 21.3114 21.1847 21.3153 22.6557 21.9944L24.0883 22.6558C24.495 22.8435 24.9627 22.8477 25.3727 22.6671L27.2968 21.8199C28.602 21.2452 30.0781 21.1938 31.4201 21.6763L32.9527 22.2274V25.5422H-0.608619L-0.792236 22.2274Z" fill="#015989"/>
</g>
<path fill-rule="evenodd" clip-rule="evenodd" d="M9.78003 3.41838C9.78003 3.41838 11.172 3.41838 11.6406 3.41838C12.1092 3.41838 13.1664 2.70185 13.7779 2.9407C14.3893 3.17954 15.4187 3.95065 15.4187 3.95065C15.4187 3.95065 17.1182 2.60913 18.1318 2.60913C19.1455 2.60913 20.9739 2.45996 20.9739 2.45996C20.9739 2.45996 20.5449 3.57343 19.3384 3.76204C18.1318 3.95065 16.6883 4.87437 16.6883 4.87437C16.6883 4.87437 18.3504 4.87437 18.6493 4.87437C18.9483 4.87437 19.3384 5.32516 19.3384 5.32516C19.3384 5.32516 18.5336 5.87201 18.1318 5.87201C17.7301 5.87201 17.2863 5.87201 17.2863 5.87201C17.2863 5.87201 16.4322 6.60498 15.377 6.44902C14.3218 6.29307 13.4751 5.32516 13.4751 5.32516C13.4751 5.32516 12.5519 5.19283 12.5519 5.0336C12.5519 5.0336 12.4427 4.98338 12.3924 4.98475C12.102 4.99267 11.9084 5.04485 11.8118 5.0336C12.3427 4.82644 12.5519 4.64316 12.5519 4.64316C12.5519 4.64316 12.9173 4.30041 13.1962 4.30041C13.4751 4.30041 14.4065 4.87437 14.4065 4.87437L14.6289 4.64316L13.4751 3.76204C11.1217 4.00862 9.78003 3.41838 9.78003 3.41838Z" fill="#FFC84A"/>
</g>
</g>
</svg>

<svg width="32" height="24" fill="none" xmlns="http://www.w3.org/2000/svg">
  <mask id="a" maskUnits="userSpaceOnUse" x="0" y="0" width="32" height="24">
    <path fill="#fff" d="M0 0h32v24H0z"/>
  </mask>
  <g mask="url(#a)">
    <path fill-rule="evenodd" clip-rule="evenodd" d="M0 0v24h32V0H0z" fill="#E31D1C"/>
    <mask id="b" maskUnits="userSpaceOnUse" x="0" y="0" width="32" height="24">
      <path fill-rule="evenodd" clip-rule="evenodd" d="M0 0v24h32V0H0z" fill="#fff"/>
    </mask>
    <g mask="url(#b)">
      <path fill-rule="evenodd" clip-rule="evenodd" d="M16.01 9.96l.049.006c.057-.196.158-.518.288-.822.206-.482.8-.752.8-.752s-.293.331-.37.856a7.45 7.45 0 00-.07.853l.041.013c.104-.177.277-.459.473-.717.316-.418.958-.537.958-.537s-.365.25-.567.741a7.507 7.507 0 00-.265.78 2.9 2.9 0 01.061.037 7.49 7.49 0 01.601-.571c.402-.336 1.055-.307 1.055-.307s-.412.161-.72.594c-.168.238-.317.49-.416.67l.065.06c.172-.112.422-.267.68-.398.467-.237 1.097-.062 1.097-.062s-.439.065-.835.418a7.08 7.08 0 00-.528.527l.055.081c.192-.066.454-.149.718-.209.51-.117 1.079.205 1.079.205s-.44-.043-.911.204c-.22.115-.432.246-.595.353l.049.127c.195-.02.445-.038.692-.037.525 0 1.006.442 1.006.442s-.42-.14-.934-.006a7.01 7.01 0 00-.613.194c.008.052.015.105.02.158.186.025.412.061.631.113.51.119.88.657.88.657s-.377-.232-.908-.216a7.24 7.24 0 00-.595.045c-.004.058-.01.115-.018.172.166.067.36.151.544.246.467.239.695.85.695.85s-.31-.315-.828-.429a6.77 6.77 0 00-.54-.093 3.23 3.23 0 01-.07.191c.137.097.291.213.437.336.401.337.486.985.486.985s-.231-.378-.71-.605a6.714 6.714 0 00-.473-.2c-.04.062-.08.123-.123.183.105.12.22.256.325.397.315.42.252 1.07.252 1.07s-.14-.42-.556-.75a6.553 6.553 0 00-.393-.286c-.054.053-.11.104-.168.153.07.136.144.289.21.444.204.483-.015 1.099-.015 1.099s-.034-.442-.358-.862a6.5 6.5 0 00-.296-.355c-.07.041-.141.08-.214.116.036.143.071.301.099.46.09.516-.261 1.067-.261 1.067s.066-.438-.156-.92a6.455 6.455 0 00-.203-.403 3.3 3.3 0 01-.241.06c.002.146.001.304-.007.46-.029.524-.495.982-.495.982s.163-.412.056-.932a6.475 6.475 0 00-.108-.439 3.428 3.428 0 01-.241.002 6.513 6.513 0 01-.12.45c-.154.5-.717.831-.717.831s.258-.36.28-.89c.006-.156.005-.311.001-.454a3.307 3.307 0 01-.239-.057 6.039 6.039 0 01-.22.416c-.262.453-.886.65-.886.65s.332-.294.473-.806a6.6 6.6 0 00.107-.457 3.244 3.244 0 01-.211-.11 6.52 6.52 0 01-.318.368c-.358.382-1.01.433-1.01.433s.39-.21.642-.678a6.67 6.67 0 00.218-.445 3.296 3.296 0 01-.164-.145 6.66 6.66 0 01-.42.299c-.44.284-1.085.176-1.085.176s.43-.11.787-.502a6.95 6.95 0 00.336-.402 3.247 3.247 0 01-.12-.174 7.01 7.01 0 01-.505.21c-.493.177-1.097-.073-1.097-.073s.443-.011.88-.313a6.82 6.82 0 00.449-.341 3.195 3.195 0 01-.069-.18 6.784 6.784 0 01-.575.097c-.52.063-1.052-.317-1.052-.317s.434.089.927-.107c.2-.08.396-.171.558-.253a3.21 3.21 0 01-.02-.16 6.982 6.982 0 01-.631-.046c-.52-.065-.944-.562-.944-.562s.4.191.925.12a7.04 7.04 0 00.646-.12c.005-.05.01-.098.017-.147a7.087 7.087 0 01-.649-.199c-.492-.18-.793-.76-.793-.76s.346.277.875.326c.254.024.51.029.709.027l.042-.117a7.22 7.22 0 01-.628-.36c-.439-.286-.602-.919-.602-.919s.275.347.78.514c.263.088.536.154.735.197.015-.024.031-.05.048-.074a7.335 7.335 0 01-.56-.534c-.357-.385-.363-1.038-.363-1.038s.184.403.632.688c.25.159.516.296.7.386l.059-.057a7.444 7.444 0 01-.448-.678c-.261-.454-.12-1.092-.12-1.092s.088.434.461.812c.221.224.464.428.625.557a3.14 3.14 0 01.055-.034 7.532 7.532 0 01-.296-.788c-.152-.502.13-1.092.13-1.092s-.013.443.266.895c.172.28.371.543.499.704l.037-.013a7.578 7.578 0 01-.1-.863c-.027-.523.389-1.027.389-1.027s-.119.427.042.933c.1.316.232.623.317.809l.049-.006c.01-.203.037-.542.096-.87.092-.517.61-.914.61-.914s-.211.389-.168.918c.026.33.086.66.126.86z" fill="#FFC84A"/>
      <path fill-rule="evenodd" clip-rule="evenodd" d="M-.792 13.92l2.615-1.061a1.562 1.562 0 011.188.005l3.63 1.511a1.56 1.56 0 001.276-.034l2.929-1.405c.42-.202.908-.205 1.331-.01l3.068 1.417a1.56 1.56 0 001.303.003l3.139-1.431a1.56 1.56 0 011.303.003l3.099 1.43c.406.188.874.192 1.284.012l3.386-1.491a1.562 1.562 0 011.158-.04l3.036 1.091v10.014H-.881l.089-10.014z" fill="#F7FCFF"/>
      <mask id="c" maskUnits="userSpaceOnUse" x="-1" y="12" width="34" height="12">
        <path fill-rule="evenodd" clip-rule="evenodd" d="M-.792 13.92l2.615-1.061a1.562 1.562 0 011.188.005l3.63 1.511a1.56 1.56 0 001.276-.034l2.929-1.405c.42-.202.908-.205 1.331-.01l3.068 1.417a1.56 1.56 0 001.303.003l3.139-1.431a1.56 1.56 0 011.303.003l3.099 1.43c.406.188.874.192 1.284.012l3.386-1.491a1.562 1.562 0 011.158-.04l3.036 1.091v10.014H-.881l.089-10.014z" fill="#fff"/>
      </mask>
      <g mask="url(#c)">
        <path d="M-.792 16.246l2.615-1.061a1.562 1.562 0 011.188.005l3.63 1.51c.411.172.875.16 1.276-.033l2.929-1.406c.42-.201.908-.205 1.331-.01l3.068 1.418c.413.19.889.192 1.303.003l3.139-1.431c.414-.19.89-.188 1.303.003l3.099 1.43c.406.188.874.192 1.284.012l3.386-1.492a1.563 1.563 0 011.158-.04l3.036 1.092M-.792 19.575l2.615-1.061a1.562 1.562 0 011.188.005l3.63 1.51c.411.172.875.16 1.276-.033l2.929-1.406c.42-.201.908-.205 1.331-.01l3.068 1.418c.413.19.889.192 1.303.003l3.139-1.431c.414-.19.89-.188 1.303.003l3.099 1.43c.406.188.874.192 1.284.012l3.386-1.492a1.562 1.562 0 011.158-.04l3.036 1.092" stroke="#015989" stroke-width="2"/>
        <path fill-rule="evenodd" clip-rule="evenodd" d="M-.792 22.227L.3 21.784a5.562 5.562 0 014.228.019l2.113.88c.411.17.875.158 1.276-.035l1.231-.59a5.562 5.562 0 014.739-.035l1.358.627c.413.191.889.192 1.303.004l1.469-.67a5.562 5.562 0 014.639.01l1.433.662c.406.188.874.192 1.284.011l1.924-.847a5.561 5.561 0 014.123-.144l1.533.551v3.315H-.608l-.184-3.315z" fill="#015989"/>
      </g>
      <path fill-rule="evenodd" clip-rule="evenodd" d="M9.78 3.418h1.86c.47 0 1.526-.716 2.138-.477.611.239 1.64 1.01 1.64 1.01s1.7-1.342 2.714-1.342c1.013 0 2.842-.149 2.842-.149s-.43 1.113-1.636 1.302c-1.206.189-2.65 1.112-2.65 1.112h1.961c.3 0 .69.451.69.451s-.805.547-1.207.547h-.846s-.854.733-1.909.577c-1.055-.156-1.902-1.124-1.902-1.124s-.923-.132-.923-.291c0 0-.11-.05-.16-.05-.29.009-.484.06-.58.05.53-.208.74-.39.74-.39s.365-.344.644-.344c.28 0 1.21.574 1.21.574l.223-.23-1.154-.882c-2.353.247-3.695-.344-3.695-.344z" fill="#FFC84A"/>
    </g>
  </g>
</svg>
